X: 6436
T: Castlebar Tramp, The
R: reel
M: 4/4
K: Amixolydian
gf|:eA (3AAA eAdA|BG (3GGG Bcdg|eA (3AAA eAdA|Beed BA A2|
eA (3AAA eAdA|BG (3GGG Bcdg|eged BAGA|Beed BA A2:|
|:abag edef|g2 bg dgbg|abag (3eee dA|Beed BA A2:|

